X: 4240
T: STILLY NIGHT
%R: jig
B: James Kerr "Merry Melodies" v.4 p.26 #240
Z: 2016 John Chambers <jc:trillian.mit.edu>
M: 6/8
L: 1/8
K: Bb
|:\
d3  d2c | B2G G2B | F2F B2d | cde d3 |\
d3  d2c | B2G G2B | F2B d2B | c3  B3 ::\
F2B B2B | c2B B2B | c2B e2d | c3  B3 |\
FBB B2B | c2B B2B | f2d d2B | cde d3 :|

%%sep 1 1 500
%%sep 1 1 500

